local/share/icons/dracula-icons-main/scalable/apps/rider.svg

<?xml version="1.0" encoding="UTF-8"?>
<svg xmlns="http://www.w3.org/2000/svg" xmlns:xlink="http://www.w3.org/1999/xlink" width="64" height="64" viewBox="0 0 64 64">
<path fill-rule="nonzero" fill="rgb(88.235294%, 25.490196%, 36.078431%)" fill-opacity="1" d="M 15.609375 8.464844 C 15.609375 12.410156 12.410156 15.609375 8.464844 15.609375 C 4.519531 15.609375 1.324219 12.410156 1.324219 8.464844 C 1.324219 4.519531 4.519531 1.324219 8.464844 1.324219 C 12.410156 1.324219 15.609375 4.519531 15.609375 8.464844 Z M 15.609375 8.464844 "/>
<path fill-rule="nonzero" fill="rgb(18.823529%, 18.823529%, 18.823529%)" fill-opacity="1" d="M 5.820312 4.496094 L 11.113281 4.496094 C 11.84375 4.496094 12.433594 5.089844 12.433594 5.820312 L 12.433594 11.113281 C 12.433594 11.84375 11.84375 12.433594 11.113281 12.433594 L 5.820312 12.433594 C 5.089844 12.433594 4.496094 11.84375 4.496094 11.113281 L 4.496094 5.820312 C 4.496094 5.089844 5.089844 4.496094 5.820312 4.496094 Z M 5.820312 4.496094 "/>
<path fill-rule="nonzero" fill="rgb(97.647059%, 97.647059%, 97.647059%)" fill-opacity="1" d="M 5.050781 10.953125 L 8.15625 10.953125 L 8.15625 11.574219 L 5.050781 11.574219 Z M 5.050781 10.953125 "/>
<path fill-rule="nonzero" fill="rgb(97.647059%, 97.647059%, 97.647059%)" fill-opacity="1" d="M 5.671875 5.359375 L 5.671875 8.777344 L 6.292969 8.777344 L 6.292969 7.535156 L 6.789062 7.535156 L 7.535156 8.777344 L 8.15625 8.777344 L 7.378906 7.484375 C 7.859375 7.371094 8.15625 7.054688 8.15625 6.460938 L 8.15625 6.449219 C 8.15625 5.757812 7.820312 5.359375 7.015625 5.359375 Z M 8.464844 5.359375 L 8.464844 8.777344 L 9.398438 8.777344 L 9.882812 8.773438 C 10.484375 8.765625 11.261719 8.160156 11.261719 7.078125 L 11.261719 7.0625 C 11.261719 5.988281 10.613281 5.359375 9.808594 5.359375 Z M 6.292969 5.980469 L 6.914062 5.980469 C 7.289062 5.980469 7.535156 6.101562 7.535156 6.441406 L 7.535156 6.457031 C 7.535156 6.734375 7.289062 6.914062 6.914062 6.914062 L 6.292969 6.914062 Z M 9.085938 5.980469 L 9.707031 5.980469 C 10.082031 5.980469 10.640625 6.296875 10.640625 7.0625 L 10.640625 7.078125 C 10.640625 7.851562 10.082031 8.15625 9.707031 8.15625 L 9.085938 8.15625 Z M 9.085938 5.980469 "/>
</svg>

<svg width="64" height="64" version="1.1" viewBox="0 0 16.933 16.933" xmlns="http://www.w3.org/2000/svg">
 <path d="m15.61 8.4665a7.1436 7.1436 0 0 1-7.1436 7.1436 7.1436 7.1436 0 0 1-7.1436-7.1436 7.1436 7.1436 0 0 1 7.1436-7.1436 7.1436 7.1436 0 0 1 7.1436 7.1436z" fill="#e1415c" stroke-width=".26458"/>
 <rect x="4.4978" y="4.4978" width="7.9373" height="7.9373" rx="1.3229" ry="1.3229" fill="#303030" style="paint-order:markers stroke fill"/>
 <path d="m5.05 10.952h3.1059v0.62118h-3.1059z" fill="#f9f9f9" stroke-width=".26458"/>
 <path d="m5.6712 5.3606v3.4165h0.62118v-1.2424l0.49683-6.212e-4 0.74554 1.243h0.62118l-0.77648-1.2945c0.4791-0.11339 0.77648-0.42761 0.77648-1.0197v-0.015166c0-0.69164-0.33726-1.0871-1.1411-1.0871zm2.7953 0v3.4165h0.93178l0.48287-0.0054c0.60143-0.00716 1.3807-0.61035 1.3807-1.6949v-0.01583c0-1.074-0.64815-1.7004-1.4517-1.7004zm-2.1741 0.62118h0.62118c0.37386 0 0.62118 0.12153 0.62118 0.458v0.015771c0 0.2804-0.24732 0.45837-0.62118 0.458l-0.62118-7.1e-6zm2.7953 1.46e-5h0.62118c0.37395 0 0.93178 0.31575 0.93178 1.0792v0.015772c0 0.77394-0.55792 1.0792-0.93178 1.0792h-0.62118z" fill="#f9f9f9" stroke-width=".26458"/>
</svg>
